!! 00000] TT[TB
!! NN
!!!OTL: Mao zhuxi qinshou zaipei ta
!!!ARE: Asia, China,ÿHunan, Dongan
!! Ethnic Group: Han
!! I, 489, 2)
!!!SCT: C0810
!!!YEM: Copyright 1995, estate of Helmut Schaffrath.
**kern
*ICvox
*Ivox
*M2/4
*k[b-e-]
*B-:
{8ff
8ff
16ff
16cc
24ff
24cc
24ff
=1
2gg
=2
8bb-
16gg
16bb-
16gg
16ff
8ff
=3
8ff
8ff
16cc
16dd
16cc
16b-
=4
2g}
=5
{16cc
8.cc
8dd
16dd
16ff
=6
16gg
16ff
16dd
[16cc
4cc]
=7
8ff
16dd
[16cc
4cc]
=8
4.cc
8r}
=9
{8ff
24dd
24gg
24ff
8cc
16cc
16dd
=10
16ff
16dd
16ff
[16gg
4gg]
=11
8bb-
16gg
16bb-
16gg
16ff
8ff
=12
16dd
8.ff
16cc
16dd
16cc
16b-
=13
2g}
=14
{8cc
16cc
16cc
8dd
16dd
16ff
=15
16gg
16ff
16dd
[16cc
4cc]
=16
8ff
16dd
[16cc
4cc]
=17
4.cc
8r}
==
!!!AGN: Shange. Xin minge
!!!ONB: ESAC (Essen Associative Code) Database: CHINA
!!!AMT: simple duple
!!!AIN: vox
!!!EED: Helmut Schaffrath
!!!EEV: 1.0
*-
